img/svg/ak06-4.svg

<svg width="26" height="22" viewBox="0 0 26 22" fill="none" xmlns="http://www.w3.org/2000/svg">
<path d="M12.0938 6.75C11.5312 6.60938 11.1094 6.32812 10.7344 5.95312C10.3594 5.57812 10.125 5.10938 10.0781 4.54688C9.98438 3.79688 10.125 3.14062 10.5938 2.57812C11.0625 2.01562 11.625 1.6875 12.375 1.59375V0.75C12.375 0.5625 12.4219 0.375 12.5625 0.234375C12.7031 0.09375 12.8906 0 13.125 0H13.875C14.0625 0 14.25 0.09375 14.3906 0.234375C14.5312 0.375 14.625 0.5625 14.625 0.75V1.59375C15.1875 1.6875 15.6562 1.82812 16.125 2.10938C16.2188 2.20312 16.3125 2.34375 16.3125 2.53125C16.3125 2.71875 16.2656 2.90625 16.1719 3L15.375 3.79688C15.1875 3.98438 14.9531 4.03125 14.7188 3.89062C14.5312 3.84375 14.3906 3.79688 14.2031 3.79688H12.7031C12.5625 3.79688 12.4688 3.84375 12.375 3.9375C12.2812 4.03125 12.2812 4.07812 12.2812 4.17188C12.2812 4.40625 12.375 4.54688 12.5625 4.54688L14.9062 5.25C15.4219 5.4375 15.8906 5.71875 16.2656 6.09375C16.6406 6.46875 16.8281 6.9375 16.9219 7.45312C17.0156 8.20312 16.8281 8.90625 16.3594 9.46875C15.8906 10.0312 15.3281 10.3594 14.625 10.4062V11.25C14.625 11.4844 14.5312 11.6719 14.3906 11.8125C14.25 11.9531 14.0625 12 13.875 12H13.125C12.8906 12 12.7031 11.9531 12.5625 11.8125C12.4219 11.6719 12.375 11.4844 12.375 11.25V10.4062C11.8125 10.3594 11.2969 10.1719 10.875 9.89062C10.6875 9.79688 10.6406 9.65625 10.6406 9.46875C10.6406 9.28125 10.6875 9.14062 10.8281 9L11.625 8.20312C11.8125 8.01562 12 8.01562 12.2812 8.10938C12.4219 8.20312 12.6094 8.20312 12.7969 8.20312H14.2969C14.3906 8.20312 14.4844 8.20312 14.5781 8.10938C14.6719 8.01562 14.7188 7.92188 14.7188 7.82812C14.7188 7.64062 14.625 7.5 14.4375 7.45312L12.0938 6.75ZM25.0312 15.375C25.3125 15.7031 25.4531 16.0781 25.4531 16.5469C25.4531 17.0156 25.2656 17.3906 24.9844 17.6719L18.2812 23.3438C17.7188 23.8125 17.1562 24 16.5 24H0.703125C0.515625 24 0.328125 23.9531 0.1875 23.8125C0.046875 23.6719 0 23.4844 0 23.25V18.75C0 18.5625 0.046875 18.375 0.1875 18.2344C0.328125 18.0938 0.515625 18 0.703125 18H3.1875L5.20312 16.2188C6.14062 15.4219 7.26562 15 8.48438 15H15.5625C15.9844 15 16.3594 15.1875 16.6406 15.5625C16.9219 15.9375 17.0625 16.3125 16.9688 16.7344C16.875 17.1094 16.7344 17.4375 16.4531 17.6719C16.1719 17.9062 15.8438 18 15.5156 18H12.0469C11.8594 18 11.6719 18.0938 11.5312 18.2344C11.3906 18.375 11.3438 18.5625 11.3438 18.75C11.3438 18.9844 11.3906 19.1719 11.5312 19.3125C11.6719 19.4531 11.8594 19.5 12.0469 19.5H17.2969C17.9531 19.5 18.5156 19.3125 19.0312 18.8438L23.1562 15.375C23.4375 15.1406 23.7188 15 24.0938 15C24.4688 15 24.75 15.1406 25.0312 15.375Z" fill="#FF7F00"/>
</svg>

<svg width="26" height="22" viewBox="0 0 26 22" fill="none" xmlns="http://www.w3.org/2000/svg"><path d="M12.094 6.75c-.563-.14-.985-.422-1.36-.797a2.202 2.202 0 01-.656-1.406c-.094-.75.047-1.406.516-1.969.469-.562 1.031-.89 1.781-.984V.75c0-.188.047-.375.188-.516A.776.776 0 0113.124 0h.75c.188 0 .375.094.516.234.14.141.234.329.234.516v.844c.563.093 1.031.234 1.5.515a.594.594 0 01.188.422c0 .188-.047.375-.141.469l-.797.797c-.188.187-.422.234-.656.094-.188-.047-.328-.094-.516-.094h-1.5a.426.426 0 00-.328.14c-.094.094-.094.141-.094.235 0 .234.094.375.281.375l2.344.703c.516.188.985.469 1.36.844.375.375.562.843.656 1.36.094.75-.094 1.452-.563 2.015-.468.562-1.03.89-1.734.937v.844a.776.776 0 01-.234.563c-.141.14-.329.187-.516.187h-.75c-.234 0-.422-.047-.563-.188-.14-.14-.187-.328-.187-.562v-.844a3.184 3.184 0 01-1.5-.515c-.188-.094-.234-.235-.234-.422A.6.6 0 0110.827 9l.797-.797c.188-.187.375-.187.656-.094.14.094.328.094.516.094h1.5c.094 0 .187 0 .281-.094.094-.093.14-.187.14-.28 0-.188-.093-.329-.28-.376l-2.344-.703zm12.937 8.625c.282.328.422.703.422 1.172s-.187.844-.469 1.125l-6.703 5.672c-.562.468-1.125.656-1.781.656H.703c-.187 0-.375-.047-.515-.188-.141-.14-.188-.328-.188-.562v-4.5c0-.188.047-.375.188-.516A.753.753 0 01.703 18h2.485l2.015-1.781A4.992 4.992 0 018.484 15h7.079c.421 0 .796.188 1.078.563.28.374.422.75.328 1.171-.094.375-.235.703-.516.938-.281.234-.61.328-.937.328h-3.47a.753.753 0 00-.515.234c-.14.141-.187.328-.187.516 0 .234.047.422.187.563.14.14.328.187.516.187h5.25c.656 0 1.219-.188 1.734-.656l4.125-3.469c.282-.234.563-.375.938-.375s.656.14.937.375z" fill="#FF7F00"/></svg>
